X: 1
T: Oró Sé Do Bheath Abhaile
R: polka
M: 2/4
L: 1/8
K: Gmix
G2 GF/G/|AGFD|F2 FF/G/|FCDF|
G2 GF/G/|AGAc-|c3 c|dcAF|G2G2:|


Tune 7480	Setting 28439

